X:1
L:1/8
Q:1/8=180
M:4/4
K:G
 G2 BG DGBG | GABd cAFA | G2 BG DGBc | defd cAFA | G2 BG DGBG | GABd cAFA | GB B2 dB B2 | 
 defd cAFA :| dggf g2 fg | adfd adfd | dggf g2 fe | defd cAFA | dggf g2 fg | a^gab a=gfe | 
 dg g2 bg g2 | defd cAFA :| </s><end_of_turn>
<start_of_turn>model
Sure, here is the extracted motif in ABC format:

G2 BG DGBG | GABd cAFA | G2 BG DGBc | defd cAFA |<eos>

id:3
<bos><start_of_turn>user
You will see an instruction related to extracting the motif of a piece of ABC music. Your responses should only include the extracted motif in ABC format.

data is:
Human: Analyze the musical work and pinpoint the consistent melodic element in every section.
